svg/fluentui-system-icons/ic_fluent_phone_span_in_24_filled.svg

<svg width="24" height="24" viewBox="0 0 24 24" fill="none" xmlns="http://www.w3.org/2000/svg">
<path d="M15.75 2C16.9409 2 17.9156 2.92516 17.9948 4.09595L18 4.25L18.001 7.9176C17.3513 7.60944 16.551 7.72416 16.0134 8.26174L13.8339 10.48C13.3134 10.7939 13 11.3756 13 12.0001L13.0065 12.1553C13.0451 12.6173 13.2554 13.0447 13.5921 13.3424L13.708 13.436L16.0138 15.7386L16.1511 15.8607C16.7247 16.2889 17.4267 16.3506 18.0006 16.0815L18 19.75C18 20.9409 17.0748 21.9156 15.904 21.9948L15.75 22H8.25C7.05914 22 6.08436 21.0748 6.00519 19.904L6 19.75L5.99991 16.0688C6.58823 16.3509 7.26864 16.2938 7.79126 15.906L7.93298 15.7873L10.291 13.435L10.4079 13.3416C10.7821 13.0108 11 12.5199 11 11.9993L10.9935 11.8442C10.9549 11.3824 10.745 10.9551 10.4086 10.6574L10.296 10.567L7.98622 8.26052C7.44912 7.72343 6.64921 7.60868 5.99962 7.91647L6 4.25C6 3.05914 6.92516 2.08436 8.09595 2.00519L8.25 2H15.75ZM17.7812 8.96885C18.0474 9.23512 18.0716 9.65178 17.8538 9.94539L17.7812 10.0295L16.56 11.2492H20.3437C20.7061 11.2491 21 11.5849 21 11.9991C21 12.3788 20.7532 12.6926 20.4329 12.7423L20.3438 12.7492H16.56L17.7812 13.9705C18.0474 14.2368 18.0716 14.6534 17.8538 14.947L17.7812 15.0312C17.5149 15.2974 17.0982 15.3216 16.8046 15.1038L16.7205 15.0312L14.3507 12.6639C14.1422 12.5383 14 12.2882 14 12.0001C14 11.7121 14.142 11.462 14.3504 11.3363L16.7205 8.96885C17.0134 8.67596 17.4883 8.67596 17.7812 8.96885ZM7.19539 8.89541L7.27951 8.96803L9.64961 11.3355C9.85799 11.4611 10 11.7113 10 11.9993C10 12.2514 9.89114 12.4744 9.72422 12.6104L9.64928 12.6631L7.27951 15.0303L7.19539 15.1029C6.9344 15.2966 6.57619 15.299 6.3128 15.1101L6.21885 15.0303L6.14623 14.9462C5.95258 14.6852 5.95019 14.327 6.13906 14.0636L6.21885 13.9697L7.44 12.7484H3.65617L3.56712 12.7415C3.24681 12.6918 3 12.378 3 11.9983C3 11.6186 3.24695 11.3048 3.56728 11.2552L3.65633 11.2484H7.44L6.21885 10.0287L6.14623 9.94457C5.92838 9.65096 5.95258 9.23429 6.21885 8.96803C6.48512 8.70176 6.90178 8.67756 7.19539 8.89541Z" fill="#212121"/>
</svg>

<svg xmlns="http://www.w3.org/2000/svg" width="24" height="24"><path d="M15.75 2a2.25 2.25 0 0 1 2.245 2.096L18 4.25l.001 3.668a1.75 1.75 0 0 0-1.988.344l-2.18 2.218c-.52.314-.833.896-.833 1.52l.007.155c.038.462.248.89.585 1.187l.116.094 2.306 2.303.137.122c.574.428 1.276.49 1.85.22L18 19.75a2.25 2.25 0 0 1-2.096 2.245L15.75 22h-7.5a2.25 2.25 0 0 1-2.245-2.096L6 19.75v-3.681a1.728 1.728 0 0 0 1.791-.163l.142-.119 2.358-2.352.117-.093A1.79 1.79 0 0 0 11 11.999l-.007-.155a1.782 1.782 0 0 0-.584-1.187l-.113-.09-2.31-2.306A1.75 1.75 0 0 0 6 7.916V4.25a2.25 2.25 0 0 1 2.096-2.245L8.25 2h7.5Zm2.031 6.969a.75.75 0 0 1 .073.976l-.073.085-1.221 1.22h3.784c.362 0 .656.335.656.75 0 .379-.247.693-.567.742l-.09.007H16.56l1.221 1.221a.75.75 0 0 1 .073.977l-.073.084a.75.75 0 0 1-.976.073l-.084-.073-2.37-2.367A.77.77 0 0 1 14 12a.77.77 0 0 1 .35-.664l2.37-2.367a.75.75 0 0 1 1.061 0ZM7.195 8.895l.085.073 2.37 2.367A.77.77 0 0 1 10 12a.786.786 0 0 1-.276.611l-.075.053-2.37 2.367-.084.073a.75.75 0 0 1-.882.007l-.094-.08-.073-.084a.75.75 0 0 1-.007-.882l.08-.094 1.221-1.222H3.656l-.089-.006c-.32-.05-.567-.364-.567-.744s.247-.693.567-.743l.09-.007H7.44l-1.221-1.22-.073-.083a.75.75 0 0 1 1.05-1.05Z"/></svg>
